svg/color/msr.svg

<svg height="32" viewBox="0 0 32 32" width="32" xmlns="http://www.w3.org/2000/svg"><g fill="none"><circle cx="16" cy="16" fill="#47b95c" r="16"/><g fill="#fff" transform="translate(6 6)"><path d="m10 0c-5.52 0-10 4.48-10 10 0 .1333333.01333333.26.02.3933333h4.69333333l2.26666667-3.89999997 3.02 4.32666667 3.0133333-4.32666667 2.2666667 3.89999997h4.6933333c.0066667-.1333333.02-.26.02-.3933333.0066667-5.52-4.4733333-10-9.9933333-10zm6.8933333 9.18666667c-.4066666-3.44666667-3.34-6.12666667-6.8933333-6.12666667-3.55333333 0-6.48666667 2.68666667-6.89333333 6.12666667h-1.21333334c.40666667-4.11333334 3.88666667-7.33333334 8.10666667-7.33333334s7.6933333 3.22 8.1066667 7.33333334z"/><path d="m12.9266667 8.73333333-2.9266667 4.19999997-2.92666667-4.19999997-1.66666666 2.86666667h-5.26666667c.76666667 4.76 4.88 8.4 9.86 8.4s9.0933333-3.64 9.86-8.4066667h-5.2666667zm3.42 4.06666667h1.2933333c-1.1466667 3.1133333-4.1333333 5.3466667-7.64 5.3466667-3.50666667 0-6.49333333-2.2333334-7.64-5.3466667h1.29333333c1.08 2.4333333 3.51333334 4.14 6.34666667 4.14 2.8333333 0 5.2666667-1.7066667 6.3466667-4.14z"/></g></g></svg>

<?xml version="1.0" encoding="UTF-8"?>
<svg width="32px" height="32px" viewBox="0 0 32 32" version="1.1" xmlns="http://www.w3.org/2000/svg" xmlns:xlink="http://www.w3.org/1999/xlink">
    <!-- Generator: Sketch 50 (54983) - http://www.bohemiancoding.com/sketch -->
    <title>color/msr</title>
    <desc>Created with Sketch.</desc>
    <defs></defs>
    <g id="color/msr" stroke="none" stroke-width="1" fill="none" fill-rule="evenodd">
        <g id="Group" fill="#47B95C" fill-rule="nonzero">
            <circle id="Oval" cx="16" cy="16" r="16"></circle>
        </g>
        <g id="Masari-(MSR)" transform="translate(6.000000, 6.000000)" fill="#FFFFFF" fill-rule="nonzero">
            <path d="M10,0 C4.48,0 0,4.48 0,10 C0,10.1333333 0.0133333333,10.26 0.02,10.3933333 L4.71333333,10.3933333 L6.98,6.49333333 L10,10.82 L13.0133333,6.49333333 L15.28,10.3933333 L19.9733333,10.3933333 C19.98,10.26 19.9933333,10.1333333 19.9933333,10 C20,4.48 15.52,0 10,0 Z M16.8933333,9.18666667 C16.4866667,5.74 13.5533333,3.06 10,3.06 C6.44666667,3.06 3.51333333,5.74666667 3.10666667,9.18666667 L1.89333333,9.18666667 C2.3,5.07333333 5.78,1.85333333 10,1.85333333 C14.22,1.85333333 17.6933333,5.07333333 18.1066667,9.18666667 L16.8933333,9.18666667 Z" id="Shape"></path>
            <path d="M12.9266667,8.73333333 L10,12.9333333 L7.07333333,8.73333333 L5.40666667,11.6 L0.14,11.6 C0.906666667,16.36 5.02,20 10,20 C14.98,20 19.0933333,16.36 19.86,11.5933333 L14.5933333,11.5933333 L12.9266667,8.73333333 Z M16.3466667,12.8 L17.64,12.8 C16.4933333,15.9133333 13.5066667,18.1466667 10,18.1466667 C6.49333333,18.1466667 3.50666667,15.9133333 2.36,12.8 L3.65333333,12.8 C4.73333333,15.2333333 7.16666667,16.94 10,16.94 C12.8333333,16.94 15.2666667,15.2333333 16.3466667,12.8 Z" id="Shape"></path>
        </g>
    </g>
</svg>
